X: 2035
T: Round O.
%R: _
B: Henry Playford "Apollo's Banquet", London 1687 (5th Edition)
F: https://archive.org/details/apollosbanquetco01rugg
Z: 2017 John Chambers <jc:trillian.mit.edu>
M: 3/2
L: 1/8
K: Gm
% - - - - - - - - - -
d2 |\
g3ab2 a2^f2g2 | d3ef2 d2B2f2 | c3cd2 e3dc2 | BAA3G G4 :: d2 | =B3cd2 e2c2f2 |
d3=ef2 g2=e2a2 | gf=e3d d4a2 | b3ab2 g2g2f2 | f4gd e2e2d2 | c2c3B HB4 |]
% - - - - - - - - - -

%%sep 1 1 500
%%sep 1 1 500

